X:1
T:Te Deum - Ortiz
T:#
%%score [ 1 2 3 4 ]
L:1/8
Q:1/4=130
M:none
K:C
V:1 treble nm="Soprano" snm="S"
V:2 treble nm="Alto" snm="A"
V:3 treble-8 nm="Tenor" snm="T"
V:4 treble nm="Bass" snm="B"
V:1
 z24 | z26 ||[Q:1/4=200][Q:1/4=200][Q:1/4=200][Q:1/4=200] c12 c4 | B8 A8- | A4 (B4 c6 B2 | %5
w: ||Te ae-|ter- nam|* Pa\- * *|
 A12 ^G4) | A16 |[M:4/2] E8 (G8 | A8) A8 | (A8 B8) | (G4 c8) B4 | (A4 G8 ^F4) | G16 || %13
w: |trem:|o- mnis|* ter-|ra *|ve\- * ne-|ra\- * *|tur.|
[M:4/2][Q:1/4=130][Q:1/4=130][Q:1/4=130][Q:1/4=130] z22 | z36 || %15
w: ||
[Q:1/4=200][Q:1/4=200][Q:1/4=200][Q:1/4=200] G12 A4 | A8 A8 | B4 G4 A4 (c4 | B8 A8- | %19
w: Ti- bi|Che- ru-|bim et Se- ra\-||
 A4 ^G2 ^F2 G8) | A16 | E16 |[M:4/2] (G16- | G16 | A16) | A8 A8 | A8 (A8- | B8) G8 | c12 (B4 | %29
w: |phim|in-|ces\-|||sa- bi-|li vo\-|* ce|pro- cla\-|
 A4 G8 ^F4) | G16 || z16 | (G12 E4) | (F6 G2 A8- | A8) z4 d4- | (d4 B4) (B8- | B8 G8- | G8) z8 | %38
w: |mant.||San\- *|ctus, * *|* San\-|* * ctus,|||
 (c12 A4 | B8 G6 A2 | B4 A6 ^G^F G4) | A16 ||[Q:1/4=130][Q:1/4=130][Q:1/4=130][Q:1/4=130] z22 || %43
w: San\- *|||ctus.||
[Q:1/4=200][Q:1/4=200][Q:1/4=200][Q:1/4=200] c12 c4 | c8 c8- | c4 B4 A8 | (B4 c4 B4 A4- | %47
w: Ple- ni|sunt coe\-|* li et|ter\- * * *|
 A4 ^G4) A16 || (E6 F2 G8-) |[M:4/2] G4 G4 E8- | E4 F4 z4 (A4- | A4 d6 c2 B2 A2 | B4) c6 B2 (A4- | %53
w: * * ra:|ma\- * *|* ie- sta\-|* tis glo\-||* ri- ae tu\-|
 A2 G2 G6 ^FE F4) | G16 ||[Q:1/4=130][Q:1/4=130][Q:1/4=130][Q:1/4=130] z38 || %56
w: |ae.||
[Q:1/4=200][Q:1/4=200][Q:1/4=200][Q:1/4=200] G16 | A8 (A8- | A4 G2 F2 E4) (A4- | A4 ^G2 ^F2 G8) | %60
w: Te|Pro- phe\-|* * * * ta\-||
 A16 || ^F16 | (^F8 G8- | G4) G4 G8 | G12 ^F4 | G16 || %66
w: rum|lau-|da\- *|* bi- lis|nu- me-|rus.|
[Q:1/4=130][Q:1/4=130][Q:1/4=130][Q:1/4=130] z40 || %67
w: |
[Q:1/4=200][Q:1/4=200][Q:1/4=200][Q:1/4=200] G12 A4 | A8 G8 | F8 D8 | E16- | E16 || E8 G8 | %73
w: Te per|or- bem|ter- ra-|rum,||san- cta|
[M:4/2] A8 A8- | A4 A4 (A8 | B8) G4 c4- | c4 (B6 A2 G4- | G4 ^F2 E2) F8 | G16 || %79
w: * con\-|* fi- te\-|* tur Ec\-|* cle\- * *|* * * si-|a.|
[Q:1/4=130][Q:1/4=130][Q:1/4=130][Q:1/4=130] z36 || %80
w: |
[Q:1/4=200][Q:1/4=200][Q:1/4=200][Q:1/4=200] G12 A4 | A8 A8- | A4 G4 F4 (A4- | A4 G2 ^F2 ^G8) | %84
w: Ve- ne-|ran- dum|* tu- um ve\-||
 A16 || ^F8 (F8- | G12) G4 | G8 G8- | G4 F4 G16 || %89
w: rum,|et u\-|* ni-|cum Fi\-|* li- um.|
[Q:1/4=130][Q:1/4=130][Q:1/4=130][Q:1/4=130] z40 || %90
w: |
[Q:1/4=200][Q:1/4=200][Q:1/4=200][Q:1/4=200] A8 A8 | (A8 G8) | A16 | (A8 B8) | (G8 F8) | E16- | %96
w: Tu Rex|glo\- *|ri-|ae, *|Chri\- *|ste.|
 E16 |[M:4/2] E16 ||[Q:1/4=130][Q:1/4=130][Q:1/4=130][Q:1/4=130] z32 || %99
w: |||
[Q:1/4=200][Q:1/4=200][Q:1/4=200][Q:1/4=200] G12 A4 | A4 A4 c4 c4 | c12 A4 | c12 A4 | B4 G4 (A8- | %104
w: Tu ad|li- ber- ran- dum|su- sce-|ptu- rus|ho- mi- nem,|
 A4 G2 F2 E4) (A4- | A4 ^G2 F2) G8 |[M:4/2] A16 || G8 G4 G4 | (F6 G2 A8- | A4) A4 A8- | A8 G8 | %111
w: * * * * ho\-|* * * mi-|nem:|non hor- ru-|i\- * *|* sti Vir\-|* gi-|
 G4 (c6 B2 A4- | A2 G2 G8) ^F4 | G16 ||[Q:1/4=130][Q:1/4=130][Q:1/4=130][Q:1/4=130] z32 | z36 || %116
w: nis u\- * *|* * * te-|rum.|||
[Q:1/4=200][Q:1/4=200][Q:1/4=200][Q:1/4=200] c12 c4 | c4 G8 (A4- | A4 G2 F2) G8- | %119
w: Tu ad|de- xte- ram|* * * De\-|
 G4 G4 (F2 G2 A2 F2 | G4 A8 ^G4) | A16 ||[M:4/2] A16- | A8 F8 | (D12 E4) | G4 (c6 B2 G2 A2 | %126
w: * i se\- * * *||des:|in|* glo-|ri\- *|a Pa\- * * *|
 B4 G8 ^F4) | G16 ||[Q:1/4=130][Q:1/4=130][Q:1/4=130][Q:1/4=130] z30 || %129
w: |tris.||
[Q:1/4=200][Q:1/4=200][Q:1/4=200][Q:1/4=200] E8 (G8 | A12) A4 | G12 E4 | E8 (F8- | F4 E4 F8) | %134
w: Te er\-|* go|quae- su-|mus, tu\-||
 E16 |[M:4/2] z4 F8 F4 | (A6 B2 c4) (B4- | B2 A2 A8 ^G2 ^F2 | ^G8) A8 | A16 || %140
w: is|fa- mu-|lis * * sub\-||* ve-|ni:|
[Q:1/4=130][Q:1/4=130][Q:1/4=130][Q:1/4=130] z32 || z10 | z8 | z32 || z6 | z24 | z24 | z10 || z18 | %149
w: |||||||||
 z18 | z18 || z24 |[Q:1/4=200][Q:1/4=200][Q:1/4=200][Q:1/4=200] ^F16 | (G12 =F2 E2) | F8 G4 (G4- | %155
w: |||be-|ne\- * *|di- ci- mus|
 G2 F2 E8 D4) | E16- | E16 ||[Q:1/4=130][Q:1/4=130][Q:1/4=130][Q:1/4=130] z36 | z22 || %160
w: |te.||||
[Q:1/4=200][Q:1/4=200][Q:1/4=200][Q:1/4=200] E8 (G8 | A12) A4 | A8 A8 | A8 G8 | A8 B8 | A16- | %166
w: Di- gna\-|* re|Do- mi-|ne di-|e i-|sto:|
 A16 | A16 ||[M:4/2] A8 A8- | A4 A4 A8 | A8 G8 | A8 B8 | (G8 F8) | E16- | E16 || %175
w: ||si- ne|* pec- ca-|to nos|cu- sto-|di\- *|re.||
[Q:1/4=130][Q:1/4=130][Q:1/4=130][Q:1/4=130] z30 | z18 || %177
w: ||
[Q:1/4=200][Q:1/4=200][Q:1/4=200][Q:1/4=200] E8 (G8 | A12) A4 | G12 E4 | (E8 F6) G2 | %181
w: Fi- at|* mi-|se- ri-|cor\- * di-|
 A4 (A6 G2 F2 E2 | D4 E4 F8) | E4 (F6 G2 A2 B2) |[M:4/2] (c4 B6 A2) A4 | ^G4 A8 G4 | A16 || %187
w: a tu\- * * *||a Do\- * * *|* * * mi-|ne su- per|nos:|
 E8 (G8 | A12) A4 | G12 E4 | F12 F4 | (F6 G2 A8- | A4) F4 G8- | G4 F4 G4 (G4- | G2 F2 E8 D4) | %195
w: Quem ad\-|* mo-|dum, quem-|ad- mo-|dum * *|* spe- ra\-|* vi- mus in||
 E16- | E16 | E16 ||[Q:1/4=130][Q:1/4=130][Q:1/4=130][Q:1/4=130] z32 | z34 |] %200
w: te.|||||
V:2
 z24 | z26 || G12 G4 | G8 F4 (F4- | F2 E2 D4 C2 D2 E4 | F8 E8) | E16 |[M:4/2] E12 E4 | C12 F4 | %9
w: ||Te ae-|ter- num Pa\-|||trem:|o- mnis|ter- ra|
 (E6 F2 G8) | D4 (E8 D2 C2 | D4 B,4 D8) | D16 ||[M:4/2] z22 | z36 || E12 F4 | F8 F8 | %17
w: ve\- * *|ne- ra\- * *||tur.|||Ti- bi|Che- ru-|
 D4 D4 (F4 E2 D2) | E16 | E16- | E16 | (A,6 B,2 C4 B,2 A,2) |[M:4/2] (B,6 C2 D4 E4- | %23
w: bim et Se\- * *|ra-|phim||in\- * * * *||
 E4) E4 D4 E4 | A,4 F8 F4 | E12 F4 | F8 E4 F4 | D4 (G6 F2 E2 D2) | (E4 F8 D4 | E8 D8) | D16 || %31
w: * ces- sa- bi-|li, in- ces-|sa- bi-|li vo- ce|pro- cla\- * * *|||mant.|
 (D12 B,4) | (B,12 C4 | D8 C8) | F12 D4 | D16 | E16 | z4 ((G8 E4)) | E12 (C4 | D12 E4) | E16- | %41
w: San\- *|ctus, *||San- ctus,|San-|ctus,|San\- *|ctus, San\-||ctus.|
 E16 || z22 || G12 G4 | G8 G8 | G8 E8 | E16- | E8 E16 || z8 z4 B,4- |[M:4/2] (B,2 C2 D8 C2 D2 | %50
w: ||Ple- ni|sunt coe-|li et|ter\-|* ra:|ma\-||
 E4 D2 C2 D4) E4 | D8 D8 | (G6 F2) E4 F4 | D16 | D16 || z38 || E8 D8 | (F6 E2 C4 D4) | E16 | E16- | %60
w: * * * * ie-|sta- tis|glo\- * ri- ae|tu-|ae.||Te Pro-|phe\- * * *|ta-|rum|
 E16 || D16- | D8 D8- | D4 E4 E8 | D8 D8 | D16 || z40 || E12 E4 | E16 | C4 (D6 C2 B,2 A,2 | %70
w: |lau\-|* da\-|* bi- lis|nu- me-|rus.||Te per|or-|bem ter\- * * *|
 G,4) (A,8 ^G,4) | A,16 || E8 E8 |[M:4/2] C8 F8- | F4 F4 (E6 F2 | G8) D4 (E4- | E4 D2 C2 B,4 C4) | %77
w: * ra\- *|rum,|san- cta|* con\-|* fi- te\- *|* tur Ec\-||
 D8 D8 | D16 || z36 || E12 F4 | F8 (F8- | F4 E2 D2) C6 D2 | E16 | E16 || D8 D8 | D12 E4 | E8 D8 | %88
w: cle- si-|a.||Ve- ne-|ran- dum|* * * tu- um|ve-|rum,|et u-|ni- cum|Fi- li-|
 D24 || z40 || E8 E8 | (F8 E8) | C4 C8 F4- | F4 D8 (G4- | G2 F2 E4) (D6 C2 | B,2 A,2 B,4) C8 | %96
w: um.||Tu Rex|glo\- *|ri- ae Chri\-|* ste, Tu|* * * Rex *|* * * glo-|
 A,4 B,4 C8 |[M:4/2] B,16 || z32 || E12 F4 | F12 G4 | F8 E4 F4- | F4 G4 F8 | D4 (D8 C2 D2 | %104
w: ri- ae Chri-|ste.||Tu ad|li- ber-|ran- dum su\-|* sce- ptu-|rus ho\- * *|
 E8) E8 | E16- |[M:4/2] E16 || B,8 B,4 B,4 | D12 D4 | C12 F4 | F8 D8 | (E16 | D16) | D16 || z32 | %115
w: * mi-|nem:||non hor- ru-|i- sti|Vir- gi-|nis u-|te\-||rum.||
 z36 || C6 D2 E4 F4 | E4 E8 A,4 | E16 | (D12 C2 D2 | E16- | E16) ||[M:4/2] E8 C4 A,4 | (C8 D8) | %124
w: |Tu ad de- xte-|ram De- i|se-|des: * *|||in glo- ri-|a, *|
 z8 G8 | E12 E4 | D8 D8 | D16 || z30 || z8 E8 | A,4 A,4 F8 | E4 (E6 D2 B,4) | C12 C4 | %133
w: in|glo- ri-|a Pa-|tris.||Te|er- go quae-|su- mus, * *|tu- is|
 (D4 E6 D2 D4- | D4 C2 B,2) C8- |[M:4/2] D8 C8 | F8 (E8 | C4 D4 E8- | E16) | E16 || z32 || z10 | %142
w: fa\- * * *|* * * mu\-|* lis|sub- ve\-|||ni:|||
 z8 | z32 || z6 | z24 | z24 | z10 || z18 | z18 | z18 || z24 | D16 | B,8 D8 | D16 | E8 (A,6 B,2 | %156
w: ||||||||||be-|ne- di-|ci-|mus te. *|
 C16 | B,16) || z36 | z22 || E16- | E8 E8- | E4 F4 F8- | F4 F4 E8 | E8 G8 | (E8 F8- | F4 E4 D8) | %167
w: ||||Di\-|* gna\-|* re Do\-|* mi- ne|di- e|i\- *||
 ^C16 ||[M:4/2] E8 F8- | F4 F4 E8 | F8 E8 | (E6 F2 G4) (D4- | D4 E4) (D6 C2 | B,2 A,2 B,4 C8) | %174
w: sto:|si- ne|* pec- ca-|to nos|cu\- * * sto\-|* * di\- *||
 B,16 || z30 | z18 || E8 E4 E4 | A,4 A,4 D8 | B,16 | C8 D8 | C8 (D6 E2 | F4 E6 DC) D4 | E4 C8 F4 | %184
w: re.|||Fi- at mi-|se- ri- cor-|di-|a tu-|a Do\- *|* * * * mi-|ne su- per|
[M:4/2] E8 (C6 D2 | E8) E8 | E16 || z4 E4 E4 E4 | D6 E2 F4 F4 | (E6 D2 B,4) C4 | D8 C8- | %191
w: nos, su\- *|* per|nos:|Quem ad- mo-|dum spe- ra- vi-|mus * * in|te, spe\-|
 C4 D4 C4 (F4- | F2 E2 D8) C4 | D16 | E8 (A,6 B,2 | C12) B,4 | A,8 C8 | B,16 || z32 | z34 |] %200
w: * ra- vi- mus|* * * in|te,|spe- ra\- *|* vi-|mus in|te.|||
V:3
"^Te Deum laudamus""^Diego Ortiz\n(c.1510-1570)" E2 (G2 A2) A2 (A2 G2) (A2 B2 c2) (B2 A4) | %1
w: Te De\- * um lau\- * da\- * * mus: *|
 E2 (G2 A2) A2 A2 G2 (A2 B2) (B2 A2 G2) G4 || e12 e4 | d8 d4 (d4- | d2 c2 B4 A2 B2 c4- | %5
w: te Do\- * mi- num con- fi\- * te\- * * mur.|Te ae-|ter- num Pa\-||
 c4 d2 c2 B2 A2 B4) | A16 |[M:4/2][K:treble-8] B12 B4 | A8 A4 d4- | d4 ^c4 (d6 =c2 | %10
w: |trem:|o- mnis|ter- ra ve\-|* ne- ra\- *|
 B2 A2 G8 F2 E2 | F4 G4 A8) | G16 || (G2 B2) A2 c2 B2 (A2 B2) (A2 G2) A4 | %14
w: ||tur.|Ti\- * bi o- mnes An\- * ge\- * li,|
 E2 (G2 A2) A2 A2 A2 A2 A2 A2 A2 G2 (A2 B2) (B2 A2 G2) A4 || c12 c4 | c8 c8 | B8 A8 | B8 (c8- | %19
w: ti- bi * Coe- li et u- ni- ver- sae Po- tes\- * ta\- * * tes:|Ti- bi|Che- ru-|bim et|Se- ra\-|
 c4 B2 A2 B8) | A16 | z8 z4 E4- |[M:4/2][K:treble-8] (E2 F2 G8) (E2 F2 | G2 A2 B8) (c4- | %24
w: |phim|in\-|* * * ces\- *|* * * sa\-|
 c2 B2 A2 G2 A4) (d4- | d4 ^c2 B2) c4 (d4- | d2 =c2 A2 B2 c8) | B4 G8 c4- | (c2 B2 A2 G2 A4 B4 | %29
w: * * * * * bi\-|* * * li vo\-||ce pro- cla\-||
 c6 B2 A2 G2 A4) | G16 || (G16- | G16 | A16- | A16) | (B16- | B16 | c16- | c16) | (B16- | B16 | %41
w: |mant.|San\-||||||||ctus.||
 A16) || A2 A2 A2 G2 (A2 B2) B2 (A2 G2) G4 || e12 e4 | e8 e8 | d12 c4 | (B4 G8 A4 | B8) A16 || %48
w: |Do- mi- nus De- us * Sa- ba\- * oth.|Ple- ni|sunt coe-|li et|ter\- * *|* ra:|
 E16 |[M:4/2][K:treble-8] (G8 A8) | A8 A8 | (A8 B8) | G8 c8 | (B8 A8) | G16 || %55
w: ma-|ie\- *|sta- tis|glo\- *|ri- ae|tu\- *|ae.|
 (G2 B2 A2) c2 B2 (A2 B2) A2 A2 A2 A2 G2 (A2 B2) (B2 A2 G2) G4 || c8 B8 | A16 | (B8 c8 | B16) | %60
w: Te * * glo- ri- o\- * sus A- po- sto- lo- rum * cho\- * * rus:|Te Pro-|phe-|ta\- *||
 A16 || A16 | (A8 B8) | G8 c8 | B8 A8 | G16 || %66
w: rum|lau-|da\- *|bi- lis|nu- me-|rus.|
 (G2 B2 A2) c2 B2 A2 A2 A2 (A2 B2) A2 A2 G2 (A2 B2) B2 (B2 A2) G4 || c12 c4 | c8 B8 | (A8 B8) | %70
w: Te * * Mar- ty- rum can- di- da\- * tus lau- dat ex\- * er ci\- * tus.|Te per|or- bem|ter\- *|
 (c8 B8) | A16 || B8 B8 |[M:4/2][K:treble-8] A8 c8 | c4 (d8 c4) | (d6 c2 B2 A2 G4- | G4) F4 G8 | %77
w: ra\- *|rum,|san- cta|* con-|fi- te\- *|tur * * * *|* Ec- cle-|
 A16 | G16 || (G2 A2 B2 c2) (B2 A4) A2 A2 A2 G2 (A2 B2) (B2 A2 G2) G4 || c12 c4 | c8 c8 | B8 A8 | %83
w: si-|a.|Pa\- * * * trem * im- men- sae ma- ies\- * ta\- * * tis:|Ve- ne-|ran- dum|tu- um|
 (B4 c4 B8) | A16 || A8 (A8- | B8) G8 | c8 B8 | A8 G16 || %89
w: ve\- * *|rum,|et u\-|* ni-|cum Fi-|li- um.|
 (G2 A2 B2 c2) (B2 A2) (A2 B2) A4 A2 A2 G2 (A2 B2) B2 (A2 G2) G4 || ^c8 c8 | (d8 B8) | A8 A8 | %93
w: San\- * * * ctum * quo\- * que Pa- ra- cli- tum * Spi- ri\- * tum.|Tu Rex|glo\- *|ri- ae|
 (d6 c2 B2 A2 G4 | c6 B2 A2 G2 A4- | A4 G2 F2) E8 | (c4 B4 A8-) | %97
w: Chri\- * * * *||* * * ste,|Chri\- * *|
[M:4/2][K:treble-8] (A4 ^G2 ^F2) G8 || E2 (G2 A2) A4 A2 A2 (A2 G2) A2 (A2 B2) G2 G2 E4 || c12 c4 | %100
w: * * * ste.|Tu Pa\- * tris sem- pi- ter\- * nus es * Fi- li- us.|Tu ad|
 c12 c4 | c8 c8 | c8 c8 | B8 A8 | (B8 c8- | c4 B2 A2) B8 |[M:4/2][K:treble-8] A16 || E8 (G8 | %108
w: li- ber-|ran- dum|su- sce-|ptu- rus|ho\- *|* * * mi-|nem:|non hor\-|
 A12) A4 | c12 A4 | (A8 B8) | G8 c8 | B8 A8 | G16 || %114
w: * ru-|i- sti|Vir\- *|gi- nis|u- te-|rum.|
 E2 (G2 A2) A2 A2 A2 A2 G2 (A2 B2 c2) (B2 A2 G2) A4 | %115
w: Tu de\- * vi- cto mor- tis a- cu\- * * le\- * * o,|
 E2 (G2 A2) A2 A2 A2 A2 B2 A2 A2 (A2 G2) A2 (A2 B2) G2 E4 || z16 | c12 c4 | c4 c4 (c8- | %119
w: a- pe\- * ru- i- sti cre- den- ti- bus re\- * gna coe\- * lo- rum.||Tu ad|de- xte- ram|
 c4 B4) A8 | (B4 c4) B8 | A16 ||[M:4/2][K:treble-8] A16 | (A16 | B16) | G8 c8 | (B8 A8) | G16 || %128
w: * * De-|i * se-|des:|in|glo\-||ri- a|Pa\- *|tris.|
 (G2 A2) A2 (A2 B2) A2 A2 (A2 G2) A2 (A2 B2) G2 E4 || z16 | z16 | E8 (G8 | A8) A8- | A8 A8 | %134
w: Iu\- * dex cre\- * de- ris es\- * se ven\- * tu- rus.|||Te er\-|* go|* quae-|
 A8 A8 |[M:4/2][K:treble-8] A8 A8 | A8 G8 | A8 B8- | B8 A8 | A16 || %140
w: su- mus,|tu- is|fa- mu-|lis sub\-|* ve-|ni:|
 E2 (G2 A2) A2 A2 A2 B2 A2 (A2 G2) A2 (A2 B2) G2 E4 || F2 (F2 E2) (D2 F2) | (E2 D2 C4) | %143
w: quos pre\- * ti- o- so san- gi- ne * re- de\- * mi- sti.|Ae- ter\- * na *|fac * *|
 C2 E2 F2 G2 G2 G2 G2 G2 G2 A2 F2 (G2 F2 E2) E4 || C2 (D2 F2) | %145
w: cum San- ctis tu- is in glo- ri- a nu- me- ra\- * * ri.|Sal- vum *|
 F2 F2 F2 F2 F2 F2 D2 F2 (E2 D2 C4) | C2 (D2 F2) F2 F2 F2 (F2 E2) D2 F2 (G2 A2) | (G2 F2 E2) E4 || %148
w: fac po- pu- lum tu- um Do- mi- ne, * *|et be\- * ne- dic he- re\- * di- ta- ti *|tu\- * * ae.|
 F2 (F2 E2) D2 F2 (E2 D2 C4) | C2 E2 F2 F2 E2 E2 G2 G4 | G2 G2 A2 F2 (G2 F2 E2) E4 || %151
w: Et re\- * ge e- os, * *|et ex- * tol- * le il- los|us- que in ae ter\- * * num.|
 E2 (G2 A2) A2 (A2 G2) (A2 B2 c2) (B2 A4) | A16 | G8 A8 | (A8 B8) | (G8 F8) | E16- | E16 || %158
w: Per sin\- * gu- los * di\- * * es, *|be-|ne- di-|ci\- *|mus *|te.||
 E2 (G2 A2) A2 A2 A2 A2 A2 A2 G2 (A2 B2 c2) (B2 A2 G2) A4 | A2 A2 (A2 G2) A2 (A2 B2) G2 G2 E4 || %160
w: Et lau\- * da- mus no- men tu- um in sae\- * * cu\- * * lum,|et in sae\- * cu- lum * sae- cu- li.|
 B16 | c16 | c8 c8- | c4 d4 B8 | c8 (d8- | d4 c2 B2 A2 G2 F2 E2 | D4 E4) F8 | E16 || %168
w: Di-|gna-|re Do\-|* mi- ne|di- e||* * i-|sto:|
[M:4/2][K:treble-8] A8 (A6 B2 | c4) (d6 ^cB c4) | d8 B8 | c8 d4 (B4- | B4 c2 B2 A2 G2 A4- | %173
w: si- ne *|* pec- ca\- * *|to nos|cu- sto- di\-||
 A4 ^G4 A8) | ^G16 || E2 (G2 A2) A2 A2 A2 G2 (A2 B2 c2) (B2 A2 G2) A4 | %176
w: |re.|Mi- se\- * re- re no- stri Do\- * * mi\- * * ne|
 A2 (A2 G2) A2 (A2 B2) G2 E4 || z16 | z16 | E8 (G8 | A12) A4 | A4 A4 A8 | A4 A4 A8- | A4 A4 A8 | %184
w: mi- se\- * re- re * no- stri.|||Fi- at|* mi-|se- ri- cor-|di- a tu\-|* a Do-|
[M:4/2][K:treble-8] G8 A8 | (B4 c4) B8 | A16 || z16 | z16 | E8 (G8 | A12) A4 | A12 A4 | A8 G8 | %193
w: mi- ne|su\- * per|nos:|||Quem- ad\-|* mo-|dum spe-|ra- vi-|
 (A8 B8) | (G8 F8) | E4 G4 A4 B4 | (c6 B2 A2 G2) (A4- | A4 ^G2 ^F2) G8 || %198
w: mus *|in *|te, spe- ra- vi-|mus * * * in|* * * te.|
 C2 (D2 F2) (F2 E2) D2 F2 (G2 A2) (G2 F2 G2 F2) (E2 D4) | %199
w: In te * Do\- * mi- ne spe\- * ra\- * * * vi: *|
 D2 (E2 G2) (G2 F2) (E2 D2) F2 (G2 A2) (G2 F2 G2 F2 E2) E4 |] %200
w: non con\- * fun\- * dar * in ae\- * ter\- * * * * num.|
V:4
 z24 | z26 || C,12 C,4 | G,8 (D,6 E,2 | F,4 G,4) (A,6 G,2 | F,4 D,4 E,8) | A,,16 | %7
w: ||Te ae-|ter- num *|* * Pa\- *||trem:|
[M:4/2] E,12 E,4 | F,12 D,4 | (A,8 G,8) | G,4 (C,8 D,4- | D,4 E,4 D,8) | G,,16 ||[M:4/2] z22 | %14
w: o- mnis|ter- ra|ve\- *|ne- ra\- *||tur.||
 z36 || C,12 F,4 | F,8 F,8 | G,8 F,4 (A,4- | A,4 ^G,4 A,8) | E,16 | A,,16 | z16 |[M:4/2] z16 | %23
w: |Ti- bi|Che- ru-|bim et Se\-||ra-|phim|||
 (E,6 F,2 G,4) E,4 | F,12 D,4 | A,4 A,8 D,4 | (F,6 G,2 A,4) F,4 | G,8 z4 C,4- | C,4 F,8 G,4 | %29
w: in\- * * ces-|sa- bi-|li, in- ces-|sa\- * * bi-|li vo\-|* ce pro-|
 (C,8 D,8) | G,,16 || z8 (G,8- | G,4 E,4) E,8 | D,8 (F,8- | F,4 D,4) D,8 | G,,8 (G,8- | %36
w: cla\- *|mant.|San\-|* * ctus,|* San\-|* * ctus,|* San\-|
 G,4 E,4) (E,8 | C,8) (C,8- | C,4 A,,4) (A,,8 | G,,4) (G,8 E,4) | (E,16 | A,,16) || z22 || %43
w: * * ctus,|* San\-|* * ctus,|* San\- *|ctus.|||
 C,12 C,4 | C,8 C,8 | G,8 A,8 | E,16- | E,8 A,,16 || z16 |[M:4/2] z8 (A,,6 B,,2 | C,4 D,8) ^C,4 | %51
w: Ple- ni|sunt coe-|li et|ter\-|* ra:||ma\- *|* * ie-|
 D,8 G,,4 (G,4- | G,2 F,2 E,2 D,2 C,4) F,4 | G,8 D,8 | G,,16 || z38 || (C,8 G,8) | F,12 F,4 | %58
w: sta- tis glo\-|* * * * * ri-|ae tu-|ae.||Te *|Pro- phe|
 (E,8 C,6 D,2 | E,16) | A,,16 || D,16 | (D,8 G,8- | G,4) C,4 (C,2 D,2 E,2 F,2) | G,8 D,8 | G,,16 || %66
w: ta\- * *||rum|lau-|da\- *|* bi- lis * * *|nu- me-|rus.|
 z40 || C,12 A,,4 | A,,8 E,8 | (F,8 G,8) | (C,6 D,2 E,8) | A,,16 || E,8 E,8 |[M:4/2] F,8 F,8- | %74
w: |Te per|or- bem|ter\- *|ra\- * *|rum,|san- cta|* con\-|
 F,4 D,4 (A,8 | G,8) G,4 (C,4- | C,4 D,4) E,8 | D,16 | G,,16 || z36 || C,12 F,4 | F,8 F,8 | %82
w: * fi- te\-|* tur Ec\-|* * cle-|si-|a.||Ve- ne-|ran- dum|
 (D,4 E,4) F,8 | E,16 | A,,16 || D,8 (D,8- | G,12) C,4 | (C,2 D,2 E,2 F,2) G,8 | D,8 G,,16 || %89
w: tu\- * um|ve-|rum,|et u\-|* ni-|cum * * * Fi-|li- um.|
 z40 || A,,8 A,,8 | (D,8 E,8) | F,16 | D,8 (G,6 F,2 | E,2 D,2 C,4) D,8 | (E,6 D,2 C,2 B,,2 A,,4- | %96
w: |Tu Rex|glo\- *|ri-|ae Chri\- *|* * * ste,|Chri\- * * * *|
 A,,4 ^G,,4 A,,8) |[M:4/2] E,16 || z32 || C,12 F,4 | F,12 E,4 | (F,6 G,2) A,4 F,4- | F,4 E,4 F,8 | %103
w: |ste.||Tu ad|li- ber-|ran\- * dum su\-|* sce- ptu-|
 G,8 (D,4 F,4 | E,6 D,2 C,4 A,,4) | E,16 |[M:4/2] A,,16 || E,8 E,4 E,4 | D,12 D,4 | F,12 D,4 | %110
w: rus ho\- *||mi-|nem:|non hor- ru-|i- sti|Vir- gi-|
 (F,8 G,8) | C,16 | D,16 | G,,16 || z32 | z36 || z16 | (C,6 D,2 E,4) F,4 | C,4 (C,6 D,2 E,2 F,2) | %119
w: nis *|u-|te-|rum.||||Tu * * ad|de- xte\- * * *|
 G,8 D,4 F,4 | E,16 | A,,16 ||[M:4/2] z8 A,8 | F,8 D,8 | G,4 G,8 E,4- | E,4 (C,6 D,2 E,2 F,2) | %126
w: ram De- i|se-|des:|in|glo- ri-|a, in glo\-|* ri\- * * *|
 G,8 D,8 | G,,16 || z30 || z16 | z16 | z8 E,8 | A,,4 A,,4 (F,6 E,2) | D,4 C,4 D,8 | A,,8 z8 | %135
w: a Pa-|tris.||||Te|er- go quae\- *|su- mus, tu-|is|
[M:4/2] D,4 D,4 F,8- | F,4 D,4 E,8 | F,8 E,8- | E,8 A,,8 | A,,16 || z32 || z10 | z8 | z32 || z6 | %145
w: fa- mu- lis|* sub- ve-|ni, sub\-|* ve-|ni.||||||
 z24 | z24 | z10 || z18 | z18 | z18 || z24 | D,16 | E,8 D,8 | D,8 (G,6 F,2 | E,4 C,4 D,8) | %156
w: |||||||be-|ne- di-|cu- mus *||
 (A,,16 | E,16) || z36 | z22 || E,8 E,8 | A,,8 A,8- | A,4 F,4 F,4 F,4- | F,4 D,4 E,8 | A,8 G,8 | %165
w: te.||||Di- gna-|re Do\-|* mi- ne, Do\-|* mi- ne|di- e|
 (A,6 G,2 F,2 E,2 D,4- | D,4 ^C,4 D,8) | A,,16 ||[M:4/2] A,8 F,8- | F,4 D,4 A,8 | D,8 E,8 | %171
w: i\- * * * *||sto:|si- ne|* pec- ca-|to nos|
 A,8 G,8- | G,4 C,4 (D,8 | E,8 A,,8) | E,16 || z30 | z18 || z16 | z16 | E,8 E,4 E,4 | %180
w: cu\- *|* sto- di\-||re.|||||Fi- at mi-|
 A,,4 A,,4 (D,6 E,2 | F,8) D,8- | D,4 ^C,4 D,8 | A,,4 F,8 D,4 |[M:4/2] E,8 F,8 | E,16 | A,,16 || %187
w: se- ri- cor\- *|* di\-|* a tu-|a Do- mi-|ne su-|per|nos:|
 z16 | z16 | z4 E,4 E,4 E,4 | (D,6 E,2 F,8-) | F,4 D,4 F,8 | D,8 E,8 | D,8 (G,6 F,2 | %194
w: ||Quem- ad- mo-|dum * *|* spe- ra-|vi- mus|in te, *|
 E,2 D,2 C,4) D,8 | C,6 B,,2 (A,,4 ^G,,4) | A,,16 | E,16 || z32 | z34 |] %200
w: * * * spe-|ra- vi- mus *|in|te.|||

